svg/icon/lbc.svg

<svg height="32" viewBox="0 0 32 32" width="32" xmlns="http://www.w3.org/2000/svg" xmlns:xlink="http://www.w3.org/1999/xlink"><defs><linearGradient id="a" x1="50%" x2="50%" y1="0%" y2="100%"><stop offset="0" stop-color="#fff" stop-opacity=".5"/><stop offset="1" stop-opacity=".5"/></linearGradient><circle id="b" cx="16" cy="15" r="15"/><filter id="c" height="111.7%" width="111.7%" x="-5.8%" y="-4.2%"><feOffset dy=".5" in="SourceAlpha" result="shadowOffsetOuter1"/><feGaussianBlur in="shadowOffsetOuter1" result="shadowBlurOuter1" stdDeviation=".5"/><feComposite in="shadowBlurOuter1" in2="SourceAlpha" operator="out" result="shadowBlurOuter1"/><feColorMatrix in="shadowBlurOuter1" values="0 0 0 0 0   0 0 0 0 0   0 0 0 0 0  0 0 0 0.199473505 0"/></filter><path id="d" d="m24.176038 16.1843977-.7973058-.1993264.2425356-.9701426 2.4850713.6212679-.6212678 2.4850712-.9701426-.2425356.2153298-.8613191-8.8723482 5.4922176-9.83869421-4.9159685v-3.7513546l10.22422251-6.3944285 9.374369 4.5735528v1.5440189l-9.7585612 6.0627238-7.2473426-3.5932456.44420205-.8959266 6.74843205 3.3458849 8.8132697-5.4754404v-.3632276l-8.3143633-4.05639885-9.28422821 5.80653765v2.5790802l8.78665791 4.3903117z"/><filter id="e" height="123.2%" width="117.4%" x="-8.7%" y="-8.3%"><feOffset dy=".5" in="SourceAlpha" result="shadowOffsetOuter1"/><feGaussianBlur in="shadowOffsetOuter1" result="shadowBlurOuter1" stdDeviation=".5"/><feColorMatrix in="shadowBlurOuter1" values="0 0 0 0 0   0 0 0 0 0   0 0 0 0 0  0 0 0 0.204257246 0"/></filter></defs><g fill="none" fill-rule="evenodd"><use fill="#000" filter="url(#c)" xlink:href="#b"/><use fill="#006149" xlink:href="#b"/><use fill="url(#a)" xlink:href="#b"/><circle cx="16" cy="15" r="14.5" stroke="#000" stroke-opacity=".097"/><g fill-rule="nonzero"><use fill="#000" filter="url(#e)" xlink:href="#d"/><use fill="#fff" fill-rule="evenodd" xlink:href="#d"/></g></g></svg>

<svg xmlns="http://www.w3.org/2000/svg" xmlns:xlink="http://www.w3.org/1999/xlink" width="32" height="32" viewBox="0 0 32 32">
  <defs>
    <linearGradient id="lbc-c" x1="50%" x2="50%" y1="0%" y2="100%">
      <stop offset="0%" stop-color="#FFF" stop-opacity=".5"/>
      <stop offset="100%" stop-opacity=".5"/>
    </linearGradient>
    <circle id="lbc-b" cx="16" cy="15" r="15"/>
    <filter id="lbc-a" width="111.7%" height="111.7%" x="-5.8%" y="-4.2%" filterUnits="objectBoundingBox">
      <feOffset dy=".5" in="SourceAlpha" result="shadowOffsetOuter1"/>
      <feGaussianBlur in="shadowOffsetOuter1" result="shadowBlurOuter1" stdDeviation=".5"/>
      <feComposite in="shadowBlurOuter1" in2="SourceAlpha" operator="out" result="shadowBlurOuter1"/>
      <feColorMatrix in="shadowBlurOuter1" values="0 0 0 0 0   0 0 0 0 0   0 0 0 0 0  0 0 0 0.199473505 0"/>
    </filter>
    <path id="lbc-e" d="M24.176038,16.1843977 L23.3787322,15.9850713 L23.6212678,15.0149287 L26.1063391,15.6361966 L25.4850713,18.1212678 L24.5149287,17.8787322 L24.7302585,17.0174131 L15.8579103,22.5096307 L6.01921609,17.5936622 L6.01921609,13.8423076 L16.2434386,7.4478791 L25.6178076,12.0214319 L25.6178076,13.5654508 L15.8592464,19.6281746 L8.6119038,16.034929 L9.05610585,15.1390024 L15.8045379,18.4848873 L24.6178076,13.0094469 L24.6178076,12.6462193 L16.3034443,8.58982045 L7.01921609,14.3963581 L7.01921609,16.9754383 L15.805874,21.36575 L24.176038,16.1843977 Z"/>
    <filter id="lbc-d" width="117.4%" height="123.2%" x="-8.7%" y="-8.3%" filterUnits="objectBoundingBox">
      <feOffset dy=".5" in="SourceAlpha" result="shadowOffsetOuter1"/>
      <feGaussianBlur in="shadowOffsetOuter1" result="shadowBlurOuter1" stdDeviation=".5"/>
      <feColorMatrix in="shadowBlurOuter1" values="0 0 0 0 0   0 0 0 0 0   0 0 0 0 0  0 0 0 0.204257246 0"/>
    </filter>
  </defs>
  <g fill="none" fill-rule="evenodd">
    <use fill="#000" filter="url(#lbc-a)" xlink:href="#lbc-b"/>
    <use fill="#006149" xlink:href="#lbc-b"/>
    <use fill="url(#lbc-c)" style="mix-blend-mode:soft-light" xlink:href="#lbc-b"/>
    <circle cx="16" cy="15" r="14.5" stroke="#000" stroke-opacity=".097"/>
    <g fill-rule="nonzero">
      <use fill="#000" filter="url(#lbc-d)" xlink:href="#lbc-e"/>
      <use fill="#FFF" fill-rule="evenodd" xlink:href="#lbc-e"/>
    </g>
  </g>
</svg>
